svg/system/safe_shield_2_line.svg

<?xml version="1.0" encoding="UTF-8"?>
<svg width="24px" height="24px" viewBox="0 0 24 24" version="1.1" xmlns="http://www.w3.org/2000/svg" xmlns:xlink="http://www.w3.org/1999/xlink">
    <title>safe_shield_2_line</title>
    <g id="页面-1" stroke="none" stroke-width="1" fill="none" fill-rule="evenodd">
        <g id="System" transform="translate(-432.000000, -288.000000)">
            <g id="safe_shield_2_line" transform="translate(432.000000, 288.000000)">
                 <path d="M24,0 L24,24 L0,24 L0,0 L24,0 Z M12.5934901,23.257841 L12.5819402,23.2595131 L12.5108777,23.2950439 L12.4918791,23.2987469 L12.4918791,23.2987469 L12.4767152,23.2950439 L12.4056548,23.2595131 C12.3958229,23.2563662 12.3870493,23.2590235 12.3821421,23.2649074 L12.3780323,23.275831 L12.360941,23.7031097 L12.3658947,23.7234994 L12.3769048,23.7357139 L12.4804777,23.8096931 L12.4953491,23.8136134 L12.4953491,23.8136134 L12.5071152,23.8096931 L12.6106902,23.7357139 L12.6232938,23.7196733 L12.6232938,23.7196733 L12.6266527,23.7031097 L12.609561,23.275831 C12.6075724,23.2657013 12.6010112,23.2592993 12.5934901,23.257841 L12.5934901,23.257841 Z M12.8583906,23.1452862 L12.8445485,23.1473072 L12.6598443,23.2396597 L12.6498822,23.2499052 L12.6498822,23.2499052 L12.6471943,23.2611114 L12.6650943,23.6906389 L12.6699349,23.7034178 L12.6699349,23.7034178 L12.678386,23.7104931 L12.8793402,23.8032389 C12.8914285,23.8068999 12.9022333,23.8029875 12.9078286,23.7952264 L12.9118235,23.7811639 L12.8776777,23.1665331 C12.8752882,23.1545897 12.8674102,23.1470016 12.8583906,23.1452862 L12.8583906,23.1452862 Z M12.1430473,23.1473072 C12.1332178,23.1423925 12.1221763,23.1452606 12.1156365,23.1525954 L12.1099173,23.1665331 L12.0757714,23.7811639 C12.0751323,23.7926639 12.0828099,23.8018602 12.0926481,23.8045676 L12.108256,23.8032389 L12.3092106,23.7104931 L12.3186497,23.7024347 L12.3186497,23.7024347 L12.3225043,23.6906389 L12.340401,23.2611114 L12.337245,23.2485176 L12.337245,23.2485176 L12.3277531,23.2396597 L12.1430473,23.1473072 Z" id="MingCute" fill-rule="nonzero"></path>
                <path d="M12.7022,2.19546 C12.2495,2.02567 11.7505,2.02567 11.2978,2.19546 L4.29775,4.82046 C3.51715,5.11318 3,5.85943 3,6.69312 L3,12.0558 C3,15.4648 4.92602,18.5812 7.97508,20.1057 L11.3292,21.7827 C11.7515,21.9939 12.2485,21.9939 12.6708,21.7827 L16.0249,20.1057 C19.074,18.5812 21,15.4648 21,12.0558 L21,6.69312 C21,5.85943 20.4829,5.11318 19.7022,4.82046 L12.7022,2.19546 Z M11,4.44312 L5,6.69312 L5,12.0558 C5,14.7072 6.49802,17.1311 8.8695,18.3168 L11,19.3821 L11,4.44312 Z M13,19.3821 L15.1305,18.3168 C17.502,17.1311 19,14.7072 19,12.0558 L19,6.69312 L13,4.44312 L13,19.3821 Z" id="形状" fill="#09244B"></path>
            </g>
        </g>
    </g>
</svg>

<svg xmlns="http://www.w3.org/2000/svg" width="24" height="24"><g fill="none" fill-rule="evenodd"><path d="M24 0v24H0V0h24ZM12.593 23.258l-.011.002-.071.035-.02.004-.014-.004-.071-.035c-.01-.004-.019-.001-.024.005l-.004.01-.017.428.005.02.01.013.104.074.015.004.012-.004.104-.074.012-.016.004-.017-.017-.427c-.002-.01-.009-.017-.017-.018Zm.265-.113-.013.002-.185.093-.01.01-.003.011.018.43.005.012.008.007.201.093c.012.004.023 0 .029-.008l.004-.014-.034-.614c-.003-.012-.01-.02-.02-.022Zm-.715.002a.023.023 0 0 0-.027.006l-.006.014-.034.614c0 .012.007.02.017.024l.015-.002.201-.093.01-.008.004-.011.017-.43-.003-.012-.01-.01-.184-.092Z"/><path fill="#09244B" d="M12.702 2.195a2 2 0 0 0-1.404 0l-7 2.625A2 2 0 0 0 3 6.693v5.363a9 9 0 0 0 4.975 8.05l3.354 1.677a1.5 1.5 0 0 0 1.342 0l3.354-1.677A9 9 0 0 0 21 12.056V6.693a2 2 0 0 0-1.298-1.873l-7-2.625ZM11 4.443l-6 2.25v5.363a7 7 0 0 0 3.87 6.26L11 19.383V4.443Zm2 14.94 2.13-1.066A7 7 0 0 0 19 12.056V6.693l-6-2.25v14.94Z"/></g></svg>
